img/logo-mobile.svg

<svg width="167" height="52" viewBox="0 0 167 52" fill="none" xmlns="http://www.w3.org/2000/svg">
<path d="M79.1763 33.6598C79.1763 32.6928 78.8138 31.9071 78.089 31.3027C77.3944 30.6983 76.5034 30.1543 75.4162 29.6708C74.3591 29.1571 73.1964 28.6433 71.9279 28.1296C70.6896 27.5856 69.5269 26.9359 68.4396 26.1804C67.3826 25.3947 66.4916 24.4277 65.7668 23.2793C65.0722 22.131 64.7248 20.6653 64.7248 18.8823C64.7248 17.3411 64.9815 16.0115 65.495 14.8933C66.0084 13.745 66.7332 12.7931 67.6695 12.0376C68.6359 11.2821 69.7685 10.723 71.0672 10.3604C72.3658 9.99773 73.8155 9.81641 75.4162 9.81641C77.2585 9.81641 78.995 9.98262 80.6259 10.315C82.2568 10.6172 83.6008 11.0705 84.6578 11.6749L82.7098 16.8878C82.0454 16.4648 81.0488 16.087 79.7199 15.7546C78.391 15.392 76.9564 15.2106 75.4162 15.2106C73.9665 15.2106 72.849 15.4977 72.0638 16.0719C71.3088 16.6461 70.9312 17.4167 70.9312 18.3837C70.9312 19.2903 71.2786 20.0458 71.9732 20.6502C72.698 21.2546 73.589 21.8137 74.646 22.3274C75.7333 22.8411 76.896 23.37 78.1343 23.9139C79.4028 24.4579 80.5655 25.1227 81.6226 25.9084C82.7098 26.6639 83.6008 27.6159 84.2954 28.7642C85.0202 29.8823 85.3827 31.2876 85.3827 32.9799C85.3827 34.6722 85.0958 36.1378 84.5219 37.3768C83.9783 38.5856 83.1931 39.598 82.1662 40.4139C81.1696 41.2299 79.9464 41.8343 78.4967 42.2271C77.0773 42.62 75.5068 42.8164 73.7853 42.8164C71.5202 42.8164 69.5269 42.6049 67.8054 42.1818C66.0839 41.7587 64.8154 41.3356 64 40.9126L65.9933 35.609C66.3255 35.7903 66.7483 35.9867 67.2618 36.1983C67.8054 36.4098 68.4094 36.6062 69.0739 36.7876C69.7383 36.9689 70.4329 37.12 71.1578 37.2409C71.9128 37.3617 72.6829 37.4222 73.4682 37.4222C75.3105 37.4222 76.7148 37.12 77.6813 36.5156C78.6779 35.881 79.1763 34.929 79.1763 33.6598Z" fill="black"/>
<path d="M87.0259 19.517H90.1518V15.256L96.0411 13.5788V19.517H101.568V24.5032H96.0411V33.2065C96.0411 34.7779 96.1921 35.9112 96.4941 36.6062C96.8263 37.2711 97.4304 37.6035 98.3062 37.6035C98.9102 37.6035 99.4237 37.5431 99.8465 37.4222C100.299 37.3013 100.798 37.12 101.341 36.8782L102.383 41.4112C101.568 41.804 100.617 42.1365 99.5294 42.4084C98.4421 42.6804 97.3398 42.8164 96.2223 42.8164C94.1384 42.8164 92.5981 42.2876 91.6015 41.2299C90.635 40.142 90.1518 38.3741 90.1518 35.9263V24.5032H87.0259V19.517Z" fill="black"/>
<path d="M105.04 20.8315C106.248 20.2876 107.682 19.8645 109.343 19.5623C111.004 19.2299 112.741 19.0637 114.553 19.0637C116.124 19.0637 117.437 19.2601 118.494 19.6529C119.551 20.0156 120.382 20.5444 120.986 21.2395C121.62 21.9345 122.058 22.7656 122.3 23.7326C122.572 24.6996 122.707 25.7876 122.707 26.9964C122.707 28.326 122.662 29.6708 122.572 31.0307C122.481 32.3604 122.421 33.6749 122.39 34.9744C122.39 36.2738 122.436 37.5431 122.526 38.7821C122.617 39.9909 122.843 41.1392 123.206 42.2271H118.404L117.452 39.0994H117.226C116.622 40.0362 115.776 40.8521 114.689 41.5472C113.632 42.212 112.258 42.5444 110.566 42.5444C109.509 42.5444 108.558 42.3933 107.712 42.0911C106.867 41.7587 106.142 41.3054 105.538 40.7312C104.934 40.1268 104.466 39.4318 104.134 38.6461C103.801 37.8301 103.635 36.9235 103.635 35.9263C103.635 34.5362 103.937 33.3727 104.541 32.4359C105.176 31.4689 106.066 30.6983 107.214 30.1241C108.392 29.5197 109.781 29.1117 111.382 28.9002C113.013 28.6584 114.825 28.5829 116.818 28.6735C117.03 26.9812 116.909 25.7725 116.456 25.0472C116.003 24.2917 114.991 23.9139 113.421 23.9139C112.243 23.9139 110.989 24.0348 109.66 24.2766C108.362 24.5183 107.29 24.8356 106.444 25.2285L105.04 20.8315ZM112.514 37.6942C113.692 37.6942 114.629 37.4373 115.323 36.9235C116.018 36.3796 116.531 35.8054 116.863 35.201V32.2546C115.927 32.1639 115.021 32.1488 114.145 32.2093C113.3 32.2697 112.545 32.4057 111.88 32.6172C111.216 32.8288 110.687 33.131 110.295 33.5238C109.902 33.9167 109.706 34.4153 109.706 35.0197C109.706 35.8659 109.947 36.5307 110.431 37.0142C110.944 37.4675 111.639 37.6942 112.514 37.6942Z" fill="black"/>
<path d="M143.687 40.7766C142.781 41.4414 141.678 41.94 140.38 42.2724C139.111 42.6351 137.797 42.8164 136.438 42.8164C134.626 42.8164 133.086 42.5293 131.817 41.9551C130.579 41.381 129.567 40.5801 128.782 39.5527C127.997 38.495 127.423 37.2257 127.061 35.745C126.729 34.2642 126.562 32.6323 126.562 30.8494C126.562 27.0115 127.423 24.065 129.145 22.0101C130.866 19.9249 133.373 18.8823 136.665 18.8823C138.326 18.8823 139.655 19.0183 140.651 19.2903C141.678 19.5623 142.599 19.9098 143.415 20.3329L142.01 25.1378C141.316 24.8054 140.621 24.5485 139.927 24.3672C139.262 24.1859 138.492 24.0953 137.616 24.0953C135.985 24.0953 134.747 24.6392 133.901 25.7271C133.056 26.7848 132.633 28.4922 132.633 30.8494C132.633 31.8164 132.739 32.7079 132.95 33.5238C133.161 34.3398 133.479 35.0499 133.901 35.6543C134.324 36.2587 134.868 36.7422 135.532 37.1049C136.227 37.4373 137.027 37.6035 137.933 37.6035C138.93 37.6035 139.776 37.4826 140.47 37.2409C141.165 36.9689 141.784 36.6516 142.328 36.2889L143.687 40.7766Z" fill="black"/>
<path d="M154.723 32.7985H153.138V42.1818H147.248V10.451H153.138V29.1722L154.497 28.5376L159.661 19.517H166.139L160.703 28.1296L158.393 29.8521L160.884 31.62L167 42.1818H160.25L154.723 32.7985Z" fill="black"/>
<rect opacity="0.5" x="47.0446" y="23.5222" width="33.2655" height="33.2655" rx="5" transform="rotate(135 47.0446 23.5222)" fill="#FF9100"/>
<rect opacity="0.5" x="51.6328" y="28.1106" width="33.2655" height="33.2655" rx="5" transform="rotate(135 51.6328 28.1106)" fill="#FF9100"/>
</svg>

<svg width="167" height="52" fill="none" xmlns="http://www.w3.org/2000/svg"><path d="M79.176 33.66c0-.967-.362-1.753-1.087-2.357-.695-.605-1.586-1.149-2.673-1.632a56.678 56.678 0 0 0-3.488-1.541 20.655 20.655 0 0 1-3.488-1.95 10.675 10.675 0 0 1-2.673-2.9c-.695-1.149-1.042-2.615-1.042-4.398 0-1.54.257-2.87.77-3.989a7.583 7.583 0 0 1 2.174-2.855c.967-.756 2.1-1.315 3.398-1.678 1.299-.362 2.749-.544 4.35-.544 1.841 0 3.578.167 5.209.499 1.63.302 2.975.755 4.032 1.36l-1.948 5.213c-.665-.423-1.661-.801-2.99-1.133-1.329-.363-2.764-.544-4.304-.544-1.45 0-2.567.287-3.352.86-.755.575-1.133 1.346-1.133 2.313 0 .906.348 1.662 1.042 2.266.725.605 1.616 1.164 2.673 1.677 1.087.514 2.25 1.043 3.488 1.587a17.156 17.156 0 0 1 3.489 1.994 9.292 9.292 0 0 1 2.672 2.856c.725 1.118 1.088 2.524 1.088 4.216 0 1.692-.287 3.158-.861 4.397a8.025 8.025 0 0 1-2.356 3.037c-.996.816-2.22 1.42-3.67 1.813-1.419.393-2.99.59-4.71.59-2.266 0-4.26-.212-5.98-.635-1.722-.423-2.99-.846-3.806-1.27l1.993-5.303c.333.181.755.378 1.269.59.543.21 1.147.407 1.812.589a21.1 21.1 0 0 0 2.084.453c.755.12 1.525.181 2.31.181 1.843 0 3.247-.302 4.213-.906.997-.635 1.495-1.587 1.495-2.856zM87.026 19.517h3.126v-4.261l5.89-1.677v5.938h5.526v4.986h-5.527v8.703c0 1.572.151 2.705.453 3.4.332.665.936.997 1.812.997.604 0 1.118-.06 1.54-.18.453-.122.952-.303 1.495-.545l1.042 4.533c-.815.393-1.766.725-2.854.997-1.087.272-2.19.408-3.307.408-2.084 0-3.624-.528-4.62-1.586-.967-1.088-1.45-2.856-1.45-5.304V24.503h-3.126v-4.986zM105.04 20.831c1.208-.543 2.642-.966 4.303-1.269a26.503 26.503 0 0 1 5.21-.498c1.571 0 2.884.196 3.941.589 1.057.363 1.888.891 2.492 1.587.634.695 1.072 1.526 1.314 2.493.272.967.407 2.055.407 3.263 0 1.33-.045 2.675-.135 4.035a88.75 88.75 0 0 0-.182 3.943c0 1.3.046 2.57.136 3.808.091 1.209.317 2.357.68 3.445h-4.802l-.952-3.128h-.226c-.604.937-1.45 1.753-2.537 2.448-1.057.665-2.431.997-4.123.997-1.057 0-2.008-.15-2.854-.453a6.645 6.645 0 0 1-2.174-1.36 6.505 6.505 0 0 1-1.404-2.085c-.333-.816-.499-1.723-.499-2.72 0-1.39.302-2.553.906-3.49.635-.967 1.525-1.738 2.673-2.312 1.178-.604 2.567-1.012 4.168-1.224 1.631-.242 3.443-.317 5.436-.226.212-1.693.091-2.901-.362-3.627-.453-.755-1.465-1.133-3.035-1.133-1.178 0-2.432.12-3.761.363-1.298.241-2.37.559-3.216.951l-1.404-4.397zm7.474 16.863c1.178 0 2.115-.257 2.809-.77.695-.544 1.208-1.119 1.54-1.723v-2.946a16.425 16.425 0 0 0-2.718-.046c-.845.06-1.6.197-2.265.408-.664.212-1.193.514-1.585.907-.393.393-.589.891-.589 1.496 0 .846.241 1.51.725 1.994.513.453 1.208.68 2.083.68zM143.687 40.777c-.906.664-2.009 1.163-3.307 1.495a14.274 14.274 0 0 1-3.942.544c-1.812 0-3.352-.287-4.621-.86-1.238-.575-2.25-1.376-3.035-2.403-.785-1.058-1.359-2.327-1.721-3.808-.332-1.48-.499-3.113-.499-4.896 0-3.837.861-6.784 2.583-8.839 1.721-2.085 4.228-3.128 7.52-3.128 1.661 0 2.99.136 3.986.408a13.5 13.5 0 0 1 2.764 1.043l-1.405 4.805a11.626 11.626 0 0 0-2.083-.77c-.665-.182-1.435-.273-2.311-.273-1.631 0-2.869.544-3.715 1.632-.845 1.058-1.268 2.765-1.268 5.122 0 .967.106 1.859.317 2.675.211.816.529 1.526.951 2.13a4.724 4.724 0 0 0 1.631 1.45c.695.333 1.495.5 2.401.5.997 0 1.843-.121 2.537-.363a9.73 9.73 0 0 0 1.858-.952l1.359 4.488zM154.723 32.798h-1.585v9.384h-5.89V10.45h5.89v18.721l1.359-.634 5.164-9.021h6.478l-5.436 8.613-2.31 1.722 2.491 1.768L167 42.182h-6.75l-5.527-9.384z" fill="#000"/><rect opacity=".5" x="47.045" y="23.522" width="33.266" height="33.266" rx="5" transform="rotate(135 47.045 23.522)" fill="#FF9100"/><rect opacity=".5" x="51.633" y="28.111" width="33.266" height="33.266" rx="5" transform="rotate(135 51.633 28.11)" fill="#FF9100"/></svg>
